X:1
T:Caprice No. 10
T:Caprice No. 10
T:Op. 20
T:Luigi Legnani (1790 - 1877)
C:Luigi Legnani
%%score ( 1 2 )
L:1/8
Q:1/4=140
M:4/4
K:Bb
V:1 treble-8 nm="Classical Guitar" snm="Guit."
V:2 treble-8 
V:1
"^Allegretto con moto" FGA | B[Bd][Bd][Bd] [Bd][Bd][Bd][Bd] | [Ac][Ac][Ac][Ac] [Ac]FAc | %3
 f[Af][Af][Af] [Af][Af][Af][Af] | [Bf][Bf][Bf][Bf] [Bf] fba |"^III" g/(e/d/)e/ B/e/G/B/ z gbg | %6
 f/B/d/B/ F/B/D/F/ z fgf | =e2 z2 z _efe | d2 z2 z e z d | z [Bg] z [Bf] z [ce] z [Bd] | %10
 [Bd]2 z2 [Ac] FGA | B[Bd][Bd][Bd] [Bd][Bd][Bd][Bd] | [Ac][Ac][Ac][Ac] [Ac]FAc | %13
 f[Af][Af][Af] [Af][Af][Af][Af] | [Bf][Bf][Bf][Bf] [Bf] def | g2 z2 z cde | f2 z2 z Bcd | %17
 e2 z2 z cfe | d [DB][DB][DB] [EB][EB][FB][FB] | [GB][GB][GB][GB] [=EB_d][EBd][EBd][EBd] | %20
 [FBd][FBd][FBd][FBd] [FBd][FBd][FBd][FBd] | !>![GBe][GBe][GBe][GBe] !>![_GB=e][GBe][GBe][GBe] | %22
 !>![Bdf][Bdf][Bdf][Bdf] !>![B_dg][Bdg][Bdg][Bdg] | z [Bdf][Bdf][Bdf] z [cea][cea][cea] | %24
"^VI" [dfb]2 z2 z!p! [df][df][df] | ([ef]/g/)([ef]/g/) ([ef]/g/)([ef]/g/) [ef] !>![ec']2 [ef] | %26
 ([df]/g/)([df]/g/) ([df]/g/)([df]/g/) [df] !>![db]2 [df] | %27
 ([ef]/g/)([ef]/g/) ([ef]/g/)([ef]/g/) [ef] !>![ec']2 [ef] | %28
!f! [dfb]c'/d'/ c'/b/a/g/ f"^I" [Acf][Acf][Acf] | %29
"^VI" [dfb]c'/d'/ c'/b/a/g/ f"^I" [Acf][Acf][Acf] |"^VI" z [dfb] z [Ac^f]"^III" z [Bdg] z [Bd_a] | %31
 [Beg][Beg][Beg][Beg] [B_dg][Bdg][Bdg][Bdg] | [B=df][Bdf][Bdf][Bdf] [cfa][cfa][cfa][cfa] | %33
"^VI" [dfb]2 z2 z!p!!p! [df][df][df] | ([ef]/g/)([ef]/g/) ([ef]/g/)([ef]/g/) [ef] !>![ec']2 [ef] | %35
 ([df]/g/)([df]/g/) ([df]/g/)([df]/g/) [df] !>![db]2 [df] | %36
 ([ef]/g/)([ef]/g/) ([ef]/g/)([ef]/g/) [ef] !>![ec']2 [ef] | %37
!f! [dfb]c'/d'/ c'/b/a/g/ f"^I" [Acf][Acf][Acf] | %38
"^VI" [dfb]c'/d'/ c'/b/a/g/ f"^I" [Acf][Acf][Acf] |"^VI" z [dfb] z [Ac^f]"^III" z [Bdg] z [Bd_a] | %40
 [Beg][Beg][Beg][Beg] [B_dg][Bdg][Bdg][Bdg] | [B=df][Bdf][Bdf][Bdf] [cfa][cfa][cfa][cfa] | %42
"^VI" [dfb]2 z2 z [e_ga][ega][ega] | [dfb]2 z2 z [e_ga][ega][ega] | %44
!ff! [dfb][dfb][dfb][dfb] [dfb][dfb][dfb][dfb] | [dfb][dfb][dfb][dfb] [dfb][dfb][dfb][dfb] | %46
 [dfb]2 [dfb]2 [Bdf]2"^III" [FBd]2 | [DFB]2 z2 [DFBdb]2 z2 | [DFB]8 |] %49
V:2
 z z2 | z F,G,A, B,2 D2 | F2 z2 z4 | z F,A,C F2 E2 | D2 z2 D2 z2 | z2 BG E2 z2 | z2 FD B,2 z2 | %7
 z BcB A2 z2 | z _ABA G z F z | E z D z A, z B, z | z FDB, F,2 z2 | z F,G,A, B,2 D2 | F2 z2 z4 | %13
 z F,A,C F2 E2 | D2 z2 D z z2 | z GEC A,2 z2 | z FDB, G,2 z2 | z ECA, F,2 z2 | z B,B,B, CCDD | %19
 EEEE =E,E,E,E, | F,F,F,F, F,F,F,F, | G,G,G,G, _G,G,G,G, | F,F,F,F, =E,E,E,E, | F,2 z2 F2 z2 | %24
 B,BB,B B,BB,B | B,AB,A B,AB,A | B,BB,B B,BB,B | B,AB,A B,AB,A | B,2 z2 z F,A,F, | %29
 B,2 z2 z F,A,F, | B, z A, z G, z D z | EEEE =EEEE | FFFF FFFF | B,BB,B B,BB,B | B,AB,A B,AB,A | %35
 B,BB,B B,BB,B | B,AB,A B,AB,A | B,2 z2 z F,A,F, | B,2 z2 z F,A,F, | B, z A, z G, z D z | %40
 EEEE =EEEE | FFFF FFFF | B,BB,B B,BB,B | B,BB,B B,BB,B | B,BAB FBDF | B,BAB FBDF | B,2 B2 F2 B,2 | %47
 B,2 z2 B,2 z2 | B,8 |] %49

